X:1
T:Title
%%score ( 1 2 ) { 3 | 4 }
L:1/8
Q:1/4=108
M:4/4
K:D
V:1 treble nm="Grand Piano, Staff"
V:2 treble 
V:3 bass nm="Choir Pad, Halton Holgate, 87.87"
V:4 bass 
V:1
 [A,F]2 D2 [CA]2 D2 | EF [CG]2 [CG]2 [DF]2 | z4 c2 z2 | [EG]2 [DF]2 [DF]2 [CE]2 | .G2 .E2 z4 | %5
w: By~William~Boyce,~ca.~1765 * * *|||||
 Bc [Ed]2 [Ed]2 [Ec]2 | z4 G2 z2 | .G2 z2 z4 | z8 |] %9
w: ||||
V:2
 x8 | x8 | [DB]2 [DA]2 AG [Fd]2 | x8 | A,-[A,F]A,-[A,D] [A,A]2 [Ec]2 | F2 z2 z4 | %6
 [Dd]2 [DB]2 DC [DF]2 | D-[DF]ED [A,D]4- | [A,D]4 z4 |] %9
V:3
 A,2 F,2 E,2 D,2 | B,2 A,2 A,2 A,2 | G,2 A,2 A,2 A,2 | A,2 A,2 A,4 | A,2 G,F, E,2 A,2 | %5
 A,2 ^G,2 A,2 A,=G, | A,2 G,2 A,2 A,2 | B,A, G,2 F,4- | F,4 z4 |] %9
V:4
 D,2 D,2 A,,2 B,,2 | G,,2 A,,2 D,2 D,2 | z2 F,2 E,2 D,2 | C,2 D,2 A,,4 | D,2 D,2 C,2 A,,2 | %5
 D,2 E,2 z4 | F,2 z2 E,2 D,2 | G,,2 A,,2 D,4- | D,4 z4 |] %9

